svg/300/outlined/key_visualizer-fill.svg

<svg xmlns="http://www.w3.org/2000/svg" width="48" height="48" viewBox="0 -960 960 960"><path d="M140.001-140.001v-45.384H240v45.384h-99.999Zm0-158.846v-45.384h295.075v45.384H140.001Zm0-158.461v-45.384h679.998v45.384H140.001Zm0-158.846v-45.383h295.075v45.383H140.001Zm0-158.461v-45.384H240v45.384h-99.999Zm195.077 634.614v-45.384h99.998v45.384h-99.998Zm-1.615-634.614v-45.384h99.998v45.384h-99.998ZM528.77-140.001v-45.384h96.152v45.384H528.77Zm-2.231-158.846v-45.384h293.46v45.384h-293.46Zm0-317.307v-45.383h293.46v45.383h-293.46Zm0-158.461v-45.384h99.998v45.384h-99.998ZM720-140.001v-45.384h99.999v45.384H720Zm0-634.614v-45.384h99.999v45.384H720Z"/></svg>

<svg xmlns="http://www.w3.org/2000/svg" width="48" height="48" viewBox="0 -960 960 960"><path d="M140-140v-45.39h100V-140H140Zm0-158.85v-45.38h295.08v45.38H140Zm0-158.46v-45.38h680v45.38H140Zm0-158.84v-45.39h295.08v45.39H140Zm0-158.46V-820h100v45.39H140ZM335.08-140v-45.39h100V-140h-100Zm-1.62-634.61V-820h100v45.39h-100ZM528.77-140v-45.39h96.15V-140h-96.15Zm-2.23-158.85v-45.38H820v45.38H526.54Zm0-317.3v-45.39H820v45.39H526.54Zm0-158.46V-820h100v45.39h-100ZM720-140v-45.39h100V-140H720Zm0-634.61V-820h100v45.39H720Z"/></svg>
